kora/actions/scalable/cloud-upload.svg

<svg xmlns="http://www.w3.org/2000/svg" width="16" height="16" version="1.1">
 <defs>
  <style id="current-color-scheme" type="text/css">
   .ColorScheme-Text { color:#dfdfdf; } .ColorScheme-Highlight { color:#4285f4; }
  </style>
 </defs>
 <path style="fill:currentColor" class="ColorScheme-Text" d="M 8,2 C 5.93,2 4.1702,3.2705 3.4102,5.0605 1.4802,5.3505 0,7 0,9 0,11.21 1.79,13 4,13 H 12.5 C 14.43,13 16,11.43 16,9.5 16,7.7 14.65,6.2293 12.91,6.0293 12.45,3.7393 10.43,2 8,2 Z M 8,4.5 11,8 H 9 V 11 H 7 V 8 H 5 Z"/>
</svg>

<svg xmlns="http://www.w3.org/2000/svg" style="fill-rule:evenodd;clip-rule:evenodd;stroke-linejoin:round;stroke-miterlimit:2" width="100%" height="100%" version="1.1" viewBox="0 0 16 16" xml:space="preserve">
 <defs>
  <style id="current-color-scheme" type="text/css">
   .ColorScheme-Text { color:#dfdfdf; } .ColorScheme-Highlight { color:#4285f4; } .ColorScheme-NeutralText { color:#ff9800; } .ColorScheme-PositiveText { color:#4caf50; } .ColorScheme-NegativeText { color:#f44336; }
  </style>
 </defs>
 <path style="fill:currentColor;fill-opacity:0.3" class="ColorScheme-Text" d="M8,2c-2.07,0 -3.83,1.271 -4.59,3.061c-1.93,0.29 -3.41,1.939 -3.41,3.939c0,2.21 1.79,4 4,4l8.5,0c1.93,0 3.5,-1.57 3.5,-3.5c0,-1.8 -1.35,-3.271 -3.09,-3.471c-0.46,-2.29 -2.48,-4.029 -4.91,-4.029Z"/>
 <path style="fill:currentColor;" class="ColorScheme-Text" d="M8,4.5l3,3.5l-2,0l0,3l-2,0l0,-3l-2,0l3,-3.5Z"/>
</svg>
